X:46
T:The Western
T:The Athlone
R:hornpipe
M:4/4
L:1/8
K:Cmaj
gf | ec (3cBc GcEc | ec (3cBc GcEc | AF (3FEF CFA,F | (3ABc Bd cBcd |
ec (3cBc G^FGc | ec (3cBc GcEG | AF (3FEF CFEG | (3ABc Bdc2::
gf | e2ce gage | f2df abaf | e2ce gage | fdd^c defd |
e2ce gage | fAcf a2gf | egae dGBd | (3cdc Bd c2 :|
